assets/images/clients/OPTBANK.svg

<svg width="300" height="120" viewBox="0 0 300 120" fill="none" xmlns="http://www.w3.org/2000/svg">
<g clip-path="url(#clip0_3300_14505)">
<path fill-rule="evenodd" clip-rule="evenodd" d="M90 59.9927C90 53.4579 95.3018 48.1406 101.852 48.1406V52.4252C97.6753 52.4252 94.2846 55.8159 94.2846 59.9927C94.2846 64.1848 97.6753 67.5755 101.867 67.5755C106.029 67.5755 109.435 64.2156 109.435 59.9773H113.719C113.719 66.5583 108.418 71.8601 101.867 71.8601C95.3018 71.8601 90 66.5583 90 59.9927Z" fill="#949494"/>
<path d="M96.6289 59.9919C96.6289 57.0944 98.987 54.7363 101.884 54.7363C104.782 54.7363 107.14 57.0944 107.14 59.9919C107.14 62.9048 104.782 65.2475 101.884 65.2475C98.987 65.2629 96.6289 62.9048 96.6289 59.9919Z" fill="#949494"/>
<path d="M105.535 53.3353C105.535 51.6707 106.891 50.3145 108.556 50.3145C110.22 50.3145 111.577 51.6707 111.577 53.3353C111.577 54.9998 110.22 56.3561 108.556 56.3561C106.891 56.3561 105.535 54.9998 105.535 53.3353Z" fill="#949494"/>
<path d="M198.149 56.3237L197.779 58.127C196.916 62.0417 196.608 63.3055 195.852 67.1894L195.683 67.3281L193.309 67.4051L193.186 67.2356L194.142 63.2284L194.419 61.9184C193.402 61.903 192.385 61.8721 191.367 61.8721C190.566 61.8721 189.965 61.8875 189.348 61.903C188.994 63.475 188.701 64.8621 188.254 67.1894L188.085 67.3281L185.711 67.4051L185.588 67.2356L186.543 63.2284L186.913 61.4868C187.545 58.7434 187.653 58.127 188.023 55.5993L188.193 55.4298C189.287 55.2911 189.533 55.2449 190.659 55.0137L190.782 55.1832L190.535 56.3391L190.165 58.1424L189.78 59.8377C190.643 59.8531 191.491 59.8685 192.354 59.8685C193.263 59.8685 193.864 59.8531 194.866 59.8377C195.19 58.3427 195.328 57.5259 195.606 55.5993L195.775 55.4298C196.87 55.2911 197.132 55.2449 198.241 55.0137L198.349 55.1832L198.149 56.3237Z" fill="#949494"/>
<path d="M169.543 61.549C169.713 60.8709 169.821 60.1928 169.821 59.5454C169.821 57.1874 168.295 56.7866 167.432 56.7866C163.764 56.7866 163.286 62.5046 163.286 63.3677C163.286 65.248 164.411 66.0648 165.675 66.0648C168.187 66.0494 169.112 63.4756 169.543 61.549ZM171.979 62.2888C171.47 64.3078 170.037 67.791 165.629 67.791C162.515 67.791 160.805 66.1727 160.805 62.9978C160.805 62.5817 160.836 62.1347 160.897 61.6415C160.913 61.5182 160.928 61.4103 160.943 61.287C161.791 56.016 164.072 51.007 169.096 50.9608C169.759 50.9454 171.115 50.8837 172.04 50.668L171.717 52.764C170.792 52.9952 169.312 53.1339 168.449 53.1339C167.386 53.1493 166.646 53.5501 166.137 54.0433C165.891 54.2899 165.69 54.5519 165.536 54.7985C165.382 55.0451 165.274 55.2608 165.197 55.4304C165.875 55.2146 166.6 55.0913 167.432 55.0913C170.499 55.0913 172.318 56.8021 172.318 59.8229C172.333 60.6243 172.194 61.4566 171.979 62.2888Z" fill="#949494"/>
<path d="M202.171 60.131C202.726 59.6532 203.05 59.3449 203.821 58.6052C204.637 57.8191 206.61 55.7693 206.98 55.3686L207.242 55.2299H209.924L209.986 55.4456C209.754 55.6614 209.631 55.7539 208.706 56.5399C208.336 56.8482 208.105 57.0793 207.658 57.4801L204.622 60.2697L208.229 67.1436L208.09 67.3285L205.501 67.4056L205.316 67.2669C204.715 65.8181 204.545 65.4944 203.713 63.7991L202.079 60.4855C201.57 62.7819 201.247 64.2152 200.677 67.2206L200.522 67.3593L198.149 67.4364L198.041 67.2669L198.997 63.2597L199.366 61.5181C199.998 58.7747 200.106 58.1582 200.476 55.6306L200.646 55.4611C201.74 55.3223 202.002 55.2761 203.112 55.0449L203.235 55.2145L202.988 56.3704L202.618 58.1736L202.171 60.131Z" fill="#949494"/>
<path d="M181.564 64.3696C181.302 64.5699 181.055 64.8165 180.793 64.9706C180.192 65.3405 179.391 65.5101 178.759 65.5101C176.632 65.5101 176.015 63.7068 176.015 62.5972C176.015 62.4893 176.062 59.4685 178.512 57.7885C179.899 56.8484 181.41 56.8021 182.196 56.8021C182.55 56.8021 182.889 56.8175 183.244 56.8175L181.564 64.3696ZM186.033 55.2609L185.91 55.076L182.674 55.0605C180.516 55.0605 177.495 55.1993 175.322 57.7577C174.336 58.929 173.457 60.9326 173.457 62.7821C173.457 65.695 175.399 67.3904 177.788 67.3904C179.776 67.3904 180.809 66.5273 181.209 66.2036L181.04 67.1438L181.148 67.3133L183.352 67.2671L183.521 67.0975C183.984 64.3079 184.153 63.4294 184.97 59.8229L186.033 55.2609Z" fill="#949494"/>
<path d="M124.339 67.7292C121.796 67.7292 118.143 66.9278 119.469 61.0557C119.962 58.8518 121.488 54.1973 127.73 54.1973C133.817 54.1973 132.908 59.1754 132.538 60.9324C131.429 65.8952 128.392 67.7292 124.339 67.7292ZM125.171 65.14C126.959 65.14 127.791 63.2751 128.331 60.8862C128.716 59.2063 129.132 56.7403 126.974 56.7403C125.14 56.7403 124.324 58.4973 123.784 60.8862C123.275 63.1056 123.168 65.14 125.171 65.14Z" fill="#949494"/>
<path d="M139.212 67.4363C138.041 67.4363 136.114 67.4363 135.297 67.4672L135.158 67.3285C135.39 66.5424 135.929 64.4464 136.515 61.8725C136.977 59.7918 137.393 57.9732 137.563 57.1409C136.576 57.1718 135.066 57.1718 134.326 57.1872L134.188 57.0176C134.388 56.3857 134.65 55.2915 134.819 54.6287L135.051 54.5054C135.698 54.5363 138.195 54.5517 140.183 54.5517C142.603 54.5517 144.961 54.5054 145.454 54.4746L145.623 54.5979C145.438 55.1836 145.13 56.3857 144.961 56.9868L144.73 57.1409C143.759 57.1255 143.034 57.1255 141.632 57.1255C141.508 57.665 141.138 59.2216 140.507 62.0112C140.029 64.1073 139.643 66.0492 139.412 67.2668L139.212 67.4363Z" fill="#949494"/>
<path d="M152.774 57.4186C151.988 57.4186 151.11 57.4494 150.709 57.4494C150.586 57.9888 150.108 59.9924 149.676 61.9498C149.152 64.2462 148.69 66.4039 148.52 67.2978L148.289 67.452C147.087 67.452 145.561 67.452 144.328 67.4828L144.189 67.3441C144.436 66.3423 145.083 63.5989 145.7 60.8863C146.316 58.1584 146.856 55.4612 147.025 54.706L147.226 54.5365C148.551 54.5365 149.877 54.5827 153.144 54.5827C155.702 54.5827 158.184 54.5056 159.509 54.4902L159.617 54.6444C159.448 55.3071 158.708 58.4512 157.999 61.5799C157.429 64.0921 156.905 66.6043 156.766 67.3132L156.581 67.4674C155.533 67.4674 153.606 67.4674 152.589 67.4982L152.481 67.3287C152.697 66.481 153.175 64.4928 153.73 62.0577C154.146 60.2082 154.577 58.22 154.731 57.4956C154.377 57.434 153.514 57.4186 152.774 57.4186Z" fill="#949494"/>
</g>
<defs>
<clipPath id="clip0_3300_14505">
<rect width="120" height="23.7195" fill="white" transform="translate(90 48.1406)"/>
</clipPath>
</defs>
</svg>

<svg width="300" height="120" viewBox="0 0 300 120" fill="none" xmlns="http://www.w3.org/2000/svg"><g clip-path="url(#a)" fill="#949494"><path fill-rule="evenodd" clip-rule="evenodd" d="M90 59.993c0-6.535 5.302-11.852 11.852-11.852v4.284a7.57 7.57 0 0 0-7.567 7.568 7.577 7.577 0 0 0 7.582 7.583 7.568 7.568 0 0 0 7.568-7.599h4.284c0 6.581-5.301 11.883-11.852 11.883A11.853 11.853 0 0 1 90 59.993Z"/><path d="M96.629 59.992a5.262 5.262 0 0 1 5.255-5.256 5.262 5.262 0 0 1 5.256 5.256 5.252 5.252 0 0 1-5.256 5.256c-2.897.015-5.255-2.343-5.255-5.256Zm8.906-6.657a3.026 3.026 0 0 1 3.021-3.02 3.026 3.026 0 0 1 3.021 3.02 3.026 3.026 0 0 1-3.021 3.021 3.026 3.026 0 0 1-3.021-3.02Zm92.614 2.989-.37 1.803c-.863 3.915-1.171 5.178-1.927 9.062l-.169.14-2.374.076-.123-.17.956-4.007.277-1.31c-1.017-.015-2.034-.046-3.052-.046-.801 0-1.402.016-2.019.031-.354 1.572-.647 2.96-1.094 5.286l-.169.14-2.374.076-.123-.17.955-4.007.37-1.741c.632-2.744.74-3.36 1.11-5.888l.17-.17c1.094-.138 1.34-.184 2.466-.415l.123.17-.247 1.155-.37 1.803-.385 1.696c.863.015 1.711.03 2.574.03.909 0 1.51-.015 2.512-.03.324-1.495.462-2.312.74-4.239l.169-.17a23.47 23.47 0 0 0 2.466-.415l.108.17-.2 1.14Zm-28.606 5.225c.17-.678.278-1.356.278-2.004 0-2.358-1.526-2.758-2.389-2.758-3.668 0-4.146 5.718-4.146 6.58 0 1.881 1.125 2.698 2.389 2.698 2.512-.016 3.437-2.59 3.868-4.516Zm2.436.74c-.509 2.019-1.942 5.502-6.35 5.502-3.114 0-4.824-1.618-4.824-4.793 0-.416.031-.863.092-1.356l.046-.355c.848-5.271 3.129-10.28 8.153-10.326.663-.016 2.019-.077 2.944-.293l-.323 2.096c-.925.231-2.405.37-3.268.37-1.063.015-1.803.416-2.312.91a4.318 4.318 0 0 0-.601.755 5.391 5.391 0 0 0-.339.631 7.237 7.237 0 0 1 2.235-.339c3.067 0 4.886 1.711 4.886 4.732.015.801-.124 1.634-.339 2.466Zm30.192-2.158c.555-.478.879-.786 1.65-1.526.816-.786 2.789-2.836 3.159-3.236l.262-.14h2.682l.062.217c-.232.215-.355.308-1.28 1.094-.37.308-.601.54-1.048.94l-3.036 2.79 3.607 6.874-.139.184-2.589.078-.185-.14c-.601-1.448-.771-1.772-1.603-3.467l-1.634-3.313c-.509 2.296-.832 3.73-1.402 6.735l-.155.138-2.373.077-.108-.17.956-4.006.369-1.742c.632-2.743.74-3.36 1.11-5.887l.17-.17a23.585 23.585 0 0 0 2.466-.416l.123.17-.247 1.155-.37 1.804-.447 1.957Zm-20.607 4.239c-.262.2-.509.447-.771.6-.601.37-1.402.54-2.034.54-2.127 0-2.744-1.803-2.744-2.913 0-.108.047-3.129 2.497-4.809 1.387-.94 2.898-.986 3.684-.986.354 0 .693.016 1.048.016l-1.68 7.552Zm4.469-9.11-.123-.184-3.236-.016c-2.158 0-5.179.14-7.352 2.698-.986 1.171-1.865 3.175-1.865 5.024 0 2.913 1.942 4.608 4.331 4.608 1.988 0 3.021-.863 3.421-1.186l-.169.94.108.17 2.204-.047.169-.17c.463-2.79.632-3.668 1.449-7.274l1.063-4.562Zm-61.694 12.47c-2.543 0-6.196-.802-4.87-6.674.493-2.204 2.019-6.859 8.261-6.859 6.087 0 5.178 4.978 4.808 6.735-1.109 4.963-4.146 6.797-8.199 6.797Zm.832-2.59c1.788 0 2.62-1.865 3.16-4.254.385-1.68.801-4.146-1.357-4.146-1.834 0-2.65 1.757-3.19 4.146-.509 2.22-.616 4.254 1.387 4.254Zm14.041 2.296c-1.171 0-3.098 0-3.915.031l-.139-.138c.232-.787.771-2.883 1.357-5.456.462-2.081.878-3.9 1.048-4.732-.987.03-2.497.03-3.237.046l-.138-.17c.2-.631.462-1.726.631-2.388l.232-.124c.647.031 3.144.047 5.132.047 2.42 0 4.778-.047 5.271-.077l.169.123c-.185.586-.493 1.788-.662 2.389l-.231.154c-.971-.015-1.696-.015-3.098-.015-.124.539-.494 2.096-1.125 4.885a150.943 150.943 0 0 0-1.095 5.256l-.2.17Zm13.562-10.017c-.786 0-1.664.03-2.065.03-.123.54-.601 2.543-1.033 4.5-.524 2.297-.986 4.455-1.156 5.349l-.231.154c-1.202 0-2.728 0-3.961.03l-.139-.138c.247-1.002.894-3.745 1.511-6.458.616-2.728 1.156-5.425 1.325-6.18l.201-.17c1.325 0 2.651.047 5.918.047 2.558 0 5.04-.077 6.365-.093l.108.154a457.06 457.06 0 0 0-1.618 6.936 256.284 256.284 0 0 0-1.233 5.733l-.185.154c-1.048 0-2.975 0-3.992.031l-.108-.17c.216-.847.694-2.835 1.249-5.27.416-1.85.847-3.838 1.001-4.562-.354-.062-1.217-.077-1.957-.077Z"/></g><defs><clipPath id="a"><path fill="#fff" transform="translate(90 48.14)" d="M0 0h120v23.72H0z"/></clipPath></defs></svg>
